X:404
T: O BERLIN ICH MUSS DICH LASSEN
N: E1599
O: Europa, Mitteleuropa, Deutschland, Brandenburg
R: Staende -, Handwerker -, Gesellen - Lied; Abschied, Wanderschaft
M: 3/4
L: 1/8
K: F
FA | c3fcB | BAA2
GA | B3GAc | G3z
FA | c3ABd | dcc2
fd | c3ABc | A3z

